%
(Header)
(Generated by gcodetools from Inkscape.)
(Using default header. To add your own header create file "header" in the output dir.)
M3
(Header end.)
G21 (All units in mm)

(Start cutting path id: path1267)
(Change tool to Default tool)

M300 S30
G00 X40.067683 Y37.951590

M300 S50
G01 X32.410979 Y40.812002 Z-0.125000 F400.000000
G01 X29.003268 Y40.812002 Z-0.125000
G01 X29.003268 Y25.855584 Z-0.125000
G01 X32.410979 Y25.855584 Z-0.125000
G01 X40.067683 Y28.716000 Z-0.125000
G01 X40.067683 Y31.464241 Z-0.125000
G01 X35.062608 Y33.333793 Z-0.125000
G01 X40.067683 Y35.203345 Z-0.125000
G01 X40.067683 Y37.951590 Z-0.125000
M300 S30

(End cutting path id: path1267)


(Start cutting path id: path1267)
(Change tool to Default tool)

M300 S30
G00 X35.041307 Y30.090123

M300 S50
G01 X32.410979 Y29.108606 Z-0.125000 F400.000000
G01 X32.410979 Y31.071636 Z-0.125000
G01 X35.041307 Y30.090123 Z-0.125000
M300 S30

(End cutting path id: path1267)


(Start cutting path id: path1267)
(Change tool to Default tool)

M300 S30
G00 X35.041307 Y36.577468

M300 S50
G01 X32.410979 Y35.595955 Z-0.125000 F400.000000
G01 X32.410979 Y37.558985 Z-0.125000
G01 X35.041307 Y36.577468 Z-0.125000
M300 S30

(End cutting path id: path1267)


(Start cutting path id: path1265)
(Change tool to Default tool)

M300 S30
G00 X27.214218 Y40.812002

M300 S50
G01 X23.646769 Y40.812002 Z-0.125000 F400.000000
G01 X22.581859 Y37.820720 Z-0.125000
G01 X17.960148 Y37.820720 Z-0.125000
G01 X16.895238 Y40.812002 Z-0.125000
G01 X13.327788 Y40.812002 Z-0.125000
G01 X18.641690 Y25.855584 Z-0.125000
G01 X21.900316 Y25.855584 Z-0.125000
G01 X27.214218 Y40.812002 Z-0.125000
M300 S30

(End cutting path id: path1265)


(Start cutting path id: path1265)
(Change tool to Default tool)

M300 S30
G00 X21.516949 Y34.829439

M300 S50
G01 X20.271003 Y31.324024 Z-0.125000 F400.000000
G01 X19.025058 Y34.829439 Z-0.125000
G01 X21.516949 Y34.829439 Z-0.125000
M300 S30

(End cutting path id: path1265)


(Start cutting path id: path1263)
(Change tool to Default tool)

M300 S30
G00 X11.751721 Y40.812002

M300 S50
G01 X0.676654 Y40.812002 Z-0.125000 F400.000000
G01 X0.676654 Y25.855584 Z-0.125000
G01 X4.084367 Y25.855584 Z-0.125000
G01 X4.084367 Y37.820720 Z-0.125000
G01 X11.751721 Y37.820720 Z-0.125000
G01 X11.751721 Y40.812002 Z-0.125000
M300 S30

(End cutting path id: path1263)


(Start cutting path id: path1261)
(Change tool to Default tool)

M300 S30
G00 X37.639690 Y4.056618

M300 S50
G01 X35.648310 Y6.477686 Z-0.125000 F400.000000
G01 X33.124469 Y4.888567 Z-0.125000
G01 X31.420613 Y6.963769 Z-0.125000
G01 X36.681274 Y10.291574 Z-0.125000
G01 X37.469305 Y11.245047 Z-0.125000
G01 X37.064641 Y12.376123 Z-0.125000
G01 X33.380049 Y16.881744 Z-0.125000
G01 X30.451543 Y16.881744 Z-0.125000
G01 X27.086430 Y14.750456 Z-0.125000
G01 X29.077810 Y12.329384 Z-0.125000
G01 X31.601652 Y13.918507 Z-0.125000
G01 X33.305507 Y11.843301 Z-0.125000
G01 X28.044847 Y8.515500 Z-0.125000
G01 X27.256815 Y7.562028 Z-0.125000
G01 X27.650832 Y6.430947 Z-0.125000
G01 X31.346072 Y1.925326 Z-0.125000
G01 X34.274577 Y1.925326 Z-0.125000
G01 X37.639690 Y4.056618 Z-0.125000
M300 S30

(End cutting path id: path1261)


(Start cutting path id: path1259)
(Change tool to Default tool)

M300 S30
G00 X25.212187 Y16.881744

M300 S50
G01 X14.989049 Y16.881744 Z-0.125000 F400.000000
G01 X14.989049 Y1.925326 Z-0.125000
G01 X25.212187 Y1.925326 Z-0.125000
G01 X25.212187 Y4.916612 Z-0.125000
G01 X18.396762 Y4.916612 Z-0.125000
G01 X18.396762 Y7.907894 Z-0.125000
G01 X25.212187 Y7.907894 Z-0.125000
G01 X25.212187 Y10.899180 Z-0.125000
G01 X18.396762 Y10.899180 Z-0.125000
G01 X18.396762 Y13.890462 Z-0.125000
G01 X25.212187 Y13.890462 Z-0.125000
G01 X25.212187 Y16.881744 Z-0.125000
M300 S30

(End cutting path id: path1259)


(Start cutting path id: path1257)
(Change tool to Default tool)

M300 S30
G00 X13.114806 Y16.881744

M300 S50
G01 X8.418552 Y16.881744 Z-0.125000 F400.000000
G01 X0.325233 Y9.403535 Z-0.125000
G01 X8.418552 Y1.925326 Z-0.125000
G01 X13.114806 Y1.925326 Z-0.125000
G01 X5.032137 Y9.403535 Z-0.125000
G01 X13.114806 Y16.881744 Z-0.125000
M300 S30

(End cutting path id: path1257)


(Footer)
M5
G00 X0.0000 Y0.0000
M2
(Using default footer. To add your own footer create file "footer" in the output dir.)
(end)
%