%
(Header)
(Generated by gcodetools from Inkscape.)
(Using default header. To add your own header create file "header" in the output dir.)
M3
(Header end.)
G21 (All units in mm)

(Start cutting path id: path26231)
(Change tool to Default tool)

M300 S30
G00 X13.619895 Y11.867400

M300 S50
G01 X14.532288 Y13.823440 Z-0.125000 F400.000000
G01 X12.884438 Y14.507390 Z-0.125000
G01 X14.166990 Y17.256450 Z-0.125000
G01 X11.944780 Y18.162590 Z-0.125000
G01 X13.248208 Y21.092760 Z-0.125000
G01 X11.255316 Y21.895530 Z-0.125000
G01 X12.671182 Y24.829630 Z-0.125000
G01 X13.524874 Y24.538950 Z-0.125000
G01 X14.634141 Y26.880620 Z-0.125000
G01 X18.027345 Y25.580110 Z-0.125000
G01 X18.464521 Y26.446980 Z-0.125000
G01 X21.794051 Y25.158250 Z-0.125000
G01 X22.288747 Y25.995100 Z-0.125000
G01 X22.916400 Y25.745080 Z-0.125000
G01 X22.663905 Y25.204810 Z-0.125000
G01 X23.982687 Y24.686750 Z-0.125000
G01 X23.404909 Y23.401270 Z-0.125000
G01 X25.245268 Y22.684310 Z-0.125000
G01 X23.927156 Y19.750970 Z-0.125000
G01 X26.029547 Y18.938650 Z-0.125000
G01 X25.315373 Y17.407140 Z-0.125000
G01 X26.323664 Y17.001000 Z-0.125000
G01 X24.675173 Y13.469470 Z-0.125000
G01 X22.452869 Y14.292530 Z-0.125000
G01 X21.218171 Y11.690670 Z-0.125000
G01 X17.753312 Y13.030640 Z-0.125000
G01 X16.927626 Y11.270640 Z-0.125000
G01 X14.804397 Y12.080430 Z-0.125000
G01 X14.687477 Y11.855400 Z-0.125000
G01 X13.619895 Y11.867400 Z-0.125000
M300 S30

(End cutting path id: path26231)


(Start cutting path id: path26237)
(Change tool to Default tool)

M300 S30
G00 X19.285987 Y16.845090

M300 S50
G01 X16.295064 Y18.446950 Z-0.125000 F400.000000
G01 X17.839765 Y20.803160 Z-0.125000
G01 X17.849365 Y24.844820 Z-0.125000
G01 X13.001072 Y23.309880 Z-0.125000
G01 X12.860412 Y23.758230 Z-0.125000
G01 X17.714567 Y25.363470 Z-0.125000
G01 X22.392532 Y24.629620 Z-0.125000
G01 X22.323232 Y24.169620 Z-0.125000
G01 X18.361515 Y24.828880 Z-0.125000
G01 X18.361515 Y20.632600 Z-0.125000
G01 X20.854088 Y19.253170 Z-0.125000
G01 X19.285987 Y16.845090 Z-0.125000
M300 S30

(End cutting path id: path26237)


(Start cutting path id: path26229)
(Change tool to Default tool)

M300 S30
G00 X29.546708 Y39.863170

M300 S50
G01 X29.546710 Y36.854840 Z-0.125000 F400.000000
G01 X25.578030 Y36.795840 Z-0.125000
G01 X26.530280 Y33.362840 Z-0.125000
G01 X26.590100 Y35.646380 Z-0.125000
G01 X28.997423 Y35.646370 Z-0.125000
G01 X28.997423 Y35.763170 Z-0.125000
G01 X33.564928 Y35.755170 Z-0.125000
G01 X33.564928 Y33.621830 Z-0.125000
G01 X31.624425 Y33.621830 Z-0.125000
G01 X31.633825 Y30.004870 Z-0.125000
G01 X37.170173 Y28.215500 Z-0.125000
G01 X36.813430 Y27.313560 Z-0.125000
G01 X32.836268 Y26.070710 Z-0.125000
G01 X37.402784 Y22.122640 Z-0.125000
G01 X37.413964 Y22.380960 Z-0.125000
G01 X39.523697 Y22.380960 Z-0.125000
G01 X39.523697 Y21.164290 Z-0.125000
G01 X39.999670 Y21.164290 Z-0.125000
G01 X39.999670 Y19.130960 Z-0.125000
G01 X37.912713 Y19.130960 Z-0.125000
G01 X37.912713 Y19.347180 Z-0.125000
G01 X36.677015 Y19.355180 Z-0.125000
G01 X36.667615 Y21.379480 Z-0.125000
G01 X37.071738 Y21.381480 Z-0.125000
G01 X31.574155 Y26.413720 Z-0.125000
G01 X35.450520 Y27.759370 Z-0.125000
G01 X31.633917 Y28.980330 Z-0.125000
G01 X31.624517 Y27.238660 Z-0.125000
G01 X30.437066 Y27.230660 Z-0.125000
G01 X30.013636 Y26.353430 Z-0.125000
G01 X31.325068 Y25.817860 Z-0.125000
G01 X29.982145 Y22.939310 Z-0.125000
G01 X31.816996 Y22.207860 Z-0.125000
G01 X31.130597 Y20.651190 Z-0.125000
G01 X33.244613 Y19.821850 Z-0.125000
G01 X31.375858 Y15.789890 Z-0.125000
G01 X32.352652 Y15.339890 Z-0.125000
G01 X31.039084 Y12.510490 Z-0.125000
G01 X32.551706 Y11.919170 Z-0.125000
G01 X30.361670 Y7.254120 Z-0.125000
G01 X28.068533 Y8.143160 Z-0.125000
G01 X26.002464 Y3.781650 Z-0.125000
G01 X24.192332 Y4.481970 Z-0.125000
G01 X22.903307 Y1.724500 Z-0.125000
G01 X17.163073 Y3.934060 Z-0.125000
G01 X15.954254 Y1.565130 Z-0.125000
G01 X10.176316 Y3.796930 Z-0.125000
G01 X10.837576 Y5.214980 Z-0.125000
G01 X6.013769 Y7.105500 Z-0.125000
G01 X7.797470 Y10.958140 Z-0.125000
G01 X6.636207 Y11.419000 Z-0.125000
G01 X6.915497 Y12.081420 Z-0.125000
G01 X3.457890 Y13.447790 Z-0.125000
G01 X4.417655 Y15.503520 Z-0.125000
G01 X2.613403 Y16.208720 Z-0.125000
G01 X4.798498 Y20.883740 Z-0.125000
G01 X6.096907 Y20.378880 Z-0.125000
G01 X6.775545 Y21.842650 Z-0.125000
G01 X4.813233 Y22.673780 Z-0.125000
G01 X6.999390 Y27.290450 Z-0.125000
G01 X7.849149 Y26.953840 Z-0.125000
G01 X7.963420 Y27.228150 Z-0.125000
G01 X6.626749 Y27.232150 Z-0.125000
G01 X6.627027 Y33.532150 Z-0.125000
G01 X4.449039 Y33.532150 Z-0.125000
G01 X4.439359 Y35.640480 Z-0.125000
G01 X11.237834 Y35.665480 Z-0.125000
G01 X11.702424 Y36.995580 Z-0.125000
G01 X7.743707 Y36.995580 Z-0.125000
G01 X7.743707 Y40.009910 Z-0.125000
G01 X18.544973 Y40.009910 Z-0.125000
G01 X18.535773 Y37.001440 Z-0.125000
G01 X18.217900 Y36.963140 Z-0.125000
G01 X17.553300 Y34.639440 Z-0.125000
G01 X18.665470 Y35.497640 Z-0.125000
G01 X19.677776 Y34.529340 Z-0.125000
G01 X19.055356 Y36.778940 Z-0.125000
G01 X18.745762 Y36.854940 Z-0.125000
G01 X18.745762 Y39.863270 Z-0.125000
G01 X29.546708 Y39.863170 Z-0.125000
M300 S30

(End cutting path id: path26229)


(Start cutting path id: path26233)
(Change tool to Default tool)

M300 S30
G00 X16.054920 Y14.362150

M300 S50
G01 X16.054920 Y15.928820 Z-0.125000 F400.000000
G01 X17.427918 Y15.928820 Z-0.125000
G01 X17.427918 Y14.362150 Z-0.125000
G01 X16.054920 Y14.362150 Z-0.125000
M300 S30

(End cutting path id: path26233)


(Start cutting path id: path26235)
(Change tool to Default tool)

M300 S30
G00 X20.118993 Y14.495480

M300 S50
G01 X20.118993 Y16.078820 Z-0.125000 F400.000000
G01 X21.491991 Y16.078820 Z-0.125000
G01 X21.491991 Y14.495480 Z-0.125000
G01 X20.118993 Y14.495480 Z-0.125000
M300 S30

(End cutting path id: path26235)


(Footer)
M5
G00 X0.0000 Y0.0000
M2
(Using default footer. To add your own footer create file "footer" in the output dir.)
(end)
%